!!!PDT:	1923
!!!LANG: Non-Tone
!!!LING_GROUP: Siouan
!!!REG: Dakotas
!!!COM: Anon.
!!!OTL: Buffalo Society Dancing Song
!!!ODT: <1918//
!!!MPN: Obsitamato [Bear-on-the-Flat, Flat Bear]
!!!MLC: Fort Berthold Reservation, North Dakota, United States of America
!! Song was recorded during either the summer of 1912, 1915, or 1918.
!!!AGN: monody
!!!SOCIAL_FUNCTION: Mandan and Hidatsa Men's Buffalo Society
!!!AMT: irregular
!!!RWG: Transcribed pitches, durations, and meters are only approximate.
!! Drum not recorded.
**kern
*ICvox
*Imale
*clefF4
*k[b-d-a-e-g-]
*M2/4
*MM84
=1-
(12f
12f
12f)
16f
8.c
=2
(12f
12f
12f)
8c
8c
=3
(12f
12f
12f)
16f
8.c
=4
(12e-
12e-
12d-)
8B-
8B-
=5
(12f
12f
12d-)
16f
8.d-
=6
16d-
16d-
16B-
16B-
8F
8F
=7
16B-
8.B-
16F
8.F
=8
8B-
8B-
8F
8F
=9
2F
=10
(12f
12f
12d-)
16f
8.d-
=11
16d-
16d-
16B-
16B-
8F
8F
=12
16B-
8.B-
16F
8.F
=13
8B-
8B-
8F
8F
=14
2F
==
*-
!!!CNT: Mandan
!!!TXO: Mandan
!!!OCY: United States
!!!OCL: Frances Densmore
!!!YOR: Frances Densmore, "Mandan and Hidatsa Music",
!!!YOR: Bulletin 80, page 141, No. 72
!!!PPR: Smithsonian Institution, Bureau of American Ethnology
!!!PPR: Government Printing Office
!!!PDT: 1923
!!!PPP: Washington, DC, United States of America
!!!YEC: Electronic Copyright 2000 David Huron
!!!YER: August 2000
!!!YEN: United States of America
!!!ENC: David Huron
!!!RDT: August 18, 2000
!!!EEV: Release 1.0
!!!AIN: tom, vox
